; generated by PrusaSlicer 2.9.5 on 2026-06-28 at 17:25:36 UTC


;
;

;
;
; 

; external perimeters extrusion width = 0.45mm
; perimeters extrusion width = 0.45mm
; infill extrusion width = 0.45mm
; solid infill extrusion width = 0.45mm
; top infill extrusion width = 0.40mm
; first layer extrusion width = 0.42mm

; external perimeters extrusion width = 0.45mm
; perimeters extrusion width = 0.45mm
; infill extrusion width = 0.45mm
; solid infill extrusion width = 0.45mm
; top infill extrusion width = 0.40mm
; first layer extrusion width = 0.42mm

; external perimeters extrusion width = 0.45mm
; perimeters extrusion width = 0.45mm
; infill extrusion width = 0.45mm
; solid infill extrusion width = 0.45mm
; top infill extrusion width = 0.40mm
; first layer extrusion width = 0.42mm

;TYPE:Custom
M413 S0 ; disable Power Loss Recovery
G90 ; use absolute coordinates
M83 ; extruder relative mode
M104 S120 ; set temporary nozzle temp to prevent oozing during homing and auto bed leveling
M140 S60 ; set final bed temp
G4 S10 ; allow partial nozzle warmup
G28 ; home all axis
;G29 ; run abl mesh
M420 S1 ; load mesh
G1 Z50 F240
G1 X2 Y10 F3000
M104 S210 ; set final nozzle temp
M190 S60 ; wait for bed temp to stabilize
M109 S210 ; wait for nozzle temp to stabilize
G1 Z0.28 F240
G92 E0
G1 Y140 E10 F1500 ; prime the nozzle
G1 X2.3 F5000
G92 E0
G1 Y10 E10 F1200 ; prime the nozzle
G92 E0
G21 ; set units to millimeters
G90 ; use absolute coordinates
M83 ; use relative distances for extrusion
; Filament gcode
M107
;LAYER_CHANGE
;Z:0.2
;HEIGHT:0.2
G1 E-2.5 F1500
G1 Z.2 F9000
G1 X112.63 Y96.778
G1 E2.5 F2400
;TYPE:Skirt/Brim
;WIDTH:0.42
G1 F1200
G1 X113.635 Y95.806 E.04384
G1 X114.847 Y94.916 E.04715
G1 X116.401 Y94.106 E.05495
G1 X117.832 Y93.619 E.0474
G1 X119.557 Y93.314 E.05493
G1 X120.955 Y93.276 E.04385
G1 X121.996 Y93.367 E.03276
G1 X123.364 Y93.647 E.04378
G1 X124.679 Y94.101 E.04362
G1 X125.832 Y94.668 E.04029
G1 X142.025 Y104.662 E.59663
G1 X143.133 Y105.466 E.04292
G1 X143.902 Y106.17 E.03269
G1 X144.818 Y107.224 E.04378
G1 X145.563 Y108.342 E.04212
G1 X146.163 Y109.551 E.04232
G1 X146.52 Y110.531 E.0327
G1 X146.845 Y111.888 E.04375
G1 X146.985 Y113.165 E.04028
G1 X146.962 Y114.561 E.04378
G1 X146.758 Y115.942 E.04377
G1 X146.488 Y116.951 E.03275
G1 X146.023 Y118.148 E.04026
G1 X145.359 Y119.375 E.04374
G1 X144.761 Y120.23 E.03271
G1 X143.909 Y121.203 E.04055
G1 X143.139 Y121.908 E.03273
G1 X142.008 Y122.728 E.0438
G1 X140.857 Y123.359 E.04116
G1 X123.025 Y131.904 E.61999
G1 X121.706 Y132.36 E.04376
G1 X120.685 Y132.586 E.03279
G1 X119.299 Y132.731 E.04369
G1 X118.011 Y132.703 E.04039
G1 X116.067 Y132.36 E.06189
G1 X114.856 Y131.949 E.0401
G1 X114.01 Y131.561 E.02918
G1 X112.346 Y130.502 E.06184
G1 X111.635 Y129.901 E.02919
G1 X110.746 Y128.973 E.04029
G1 X109.603 Y127.342 E.06245
G1 X109.039 Y126.197 E.04002
G1 X108.716 Y125.323 E.02922
G1 X108.289 Y123.399 E.06179
G1 X108.212 Y122.47 E.02923
G1 X108.24 Y121.186 E.04027
G1 X109.948 Y102.615 E.58474
G1 X110.242 Y101.136 E.04728
G1 X110.839 Y99.492 E.05484
G1 X111.563 Y98.171 E.04723
G1 X112.594 Y96.826 E.05314
G1 X112.892 Y97.055 F9000
G1 F1200
G1 X112.914 Y97.027 E.00112
G1 X113.884 Y96.089 E.04231
G1 X115.043 Y95.238 E.04508
G1 X116.553 Y94.451 E.05339
G1 X117.922 Y93.985 E.04534
G1 X119.598 Y93.689 E.05336
G1 X120.947 Y93.653 E.04231
G1 X121.938 Y93.74 E.03119
G1 X123.259 Y94.009 E.04227
G1 X124.527 Y94.446 E.04205
G1 X125.651 Y94.999 E.03928
G1 X141.827 Y104.982 E.596
G1 X142.897 Y105.76 E.04148
G1 X143.63 Y106.431 E.03116
G1 X144.514 Y107.447 E.04223
G1 X145.236 Y108.53 E.04081
G1 X145.818 Y109.702 E.04103
G1 X146.158 Y110.637 E.03119
G1 X146.472 Y111.945 E.04218
G1 X146.613 Y113.285 E.04225
G1 X146.586 Y114.536 E.03923
G1 X146.388 Y115.869 E.04225
G1 X146.131 Y116.83 E.03119
G1 X145.678 Y117.997 E.03925
G1 X145.037 Y119.179 E.04216
G1 X144.467 Y119.994 E.03118
G1 X143.636 Y120.942 E.03953
G1 X142.903 Y121.614 E.03118
G1 X141.813 Y122.406 E.04225
G1 X140.694 Y123.019 E.04001
G1 X122.873 Y131.559 E.61961
G1 X121.6 Y131.998 E.04222
G1 X120.628 Y132.213 E.03121
G1 X119.29 Y132.354 E.04218
G1 X118.035 Y132.327 E.03936
G1 X116.173 Y131.998 E.05929
G1 X114.992 Y131.598 E.0391
G1 X114.176 Y131.223 E.02816
G1 X112.581 Y130.208 E.05928
G1 X111.895 Y129.628 E.02817
G1 X111.029 Y128.724 E.03925
G1 X109.934 Y127.161 E.05984
G1 X109.384 Y126.045 E.03901
G1 X109.073 Y125.201 E.0282
G1 X108.664 Y123.357 E.05922
G1 X108.589 Y122.462 E.02816
G1 X108.616 Y121.211 E.03923
G1 X110.323 Y102.656 E.58424
G1 X110.604 Y101.242 E.0452
G1 X111.185 Y99.643 E.05334
G1 X111.877 Y98.38 E.04515
G1 X112.856 Y97.102 E.05048
G1 E-1.75 F1500
;WIPE_START
G1 F7200
G1 X112.892 Y97.055 E-.01172
G1 X112.914 Y97.027 E-.00705
G1 X113.884 Y96.089 E-.26706
G1 X115.043 Y95.238 E-.28458
G1 X115.847 Y94.819 E-.17959
;WIPE_END
G1 X130.24 Y109.419 F9000
G1 E2.5 F2400
;TYPE:Perimeter
;WIDTH:0.419999
G1 F1200
G1 X130.844 Y108.667 E.03024
G1 X131.298 Y108.213 E.02013
G1 X131.794 Y107.796 E.02032
G1 X132.325 Y107.424 E.02033
G1 X132.879 Y107.104 E.02006
G1 X133.776 Y106.71 E.03072
G1 X134.715 Y106.436 E.03067
G1 X135.347 Y106.325 E.02012
G1 X135.992 Y106.268 E.0203
G1 X136.64 Y106.268 E.02032
G1 X137.286 Y106.325 E.02033
G1 X137.924 Y106.437 E.02031
G1 X138.544 Y106.603 E.02012
G1 X139.461 Y106.96 E.03085
G1 X140.031 Y107.256 E.02014
G1 X140.578 Y107.605 E.02034
G1 X141.086 Y107.995 E.02008
G1 X141.797 Y108.676 E.03087
G1 X142.21 Y109.167 E.02012
G1 X142.578 Y109.693 E.02013
G1 X143.051 Y110.556 E.03086
G1 X143.295 Y111.144 E.01996
G1 X143.47 Y111.745 E.01963
G1 X143.632 Y112.439 E.02234
G1 X143.713 Y113.081 E.02029
G1 X143.738 Y114.008 E.02908
G1 X143.631 Y114.985 E.03082
G1 X143.492 Y115.613 E.02017
G1 X143.297 Y116.231 E.02032
G1 X143.049 Y116.829 E.0203
G1 X142.753 Y117.399 E.02014
G1 X142.206 Y118.217 E.03085
G1 X141.793 Y118.709 E.02014
G1 X141.335 Y119.167 E.02031
G1 X140.843 Y119.579 E.02012
G1 X140.025 Y120.126 E.03085
G1 X139.456 Y120.422 E.02011
G1 X138.857 Y120.67 E.02033
G1 X138.239 Y120.865 E.02032
G1 X137.606 Y121.006 E.02033
G1 X136.972 Y121.089 E.02005
G1 X135.986 Y121.111 E.03092
G1 X135.347 Y121.055 E.02011
G1 X134.707 Y120.942 E.02038
G1 X134.09 Y120.777 E.02003
G1 X133.171 Y120.42 E.03091
G1 X132.602 Y120.123 E.02012
G1 X132.055 Y119.775 E.02033
G1 X131.548 Y119.385 E.02006
G1 X130.835 Y118.704 E.03091
G1 X130.423 Y118.212 E.02012
G1 X130.055 Y117.687 E.0201
G1 X129.581 Y116.824 E.03087
G1 X129.338 Y116.236 E.01995
G1 X129.063 Y115.292 E.03083
G1 X128.951 Y114.659 E.02016
G1 X128.895 Y114.014 E.0203
G1 X128.895 Y113.366 E.02032
G1 X128.951 Y112.726 E.02014
G1 X129.142 Y111.762 E.03081
G1 X129.336 Y111.149 E.02016
G1 X129.584 Y110.55 E.02033
G1 X129.883 Y109.975 E.02032
G1 X130.206 Y109.469 E.01882
G1 X129.892 Y109.259 F9000
;TYPE:External perimeter
G1 F1200
G1 X129.92 Y109.216 E.00161
G1 X130.563 Y108.415 E.03221
G1 X131.043 Y107.935 E.02128
G1 X131.564 Y107.497 E.02134
G1 X132.122 Y107.106 E.02136
G1 X132.708 Y106.768 E.02121
G1 X133.647 Y106.355 E.03216
G1 X134.629 Y106.068 E.03208
G1 X135.297 Y105.95 E.02127
G1 X135.976 Y105.891 E.02137
G1 X136.657 Y105.891 E.02135
G1 X137.335 Y105.95 E.02134
G1 X138.006 Y106.069 E.02137
G1 X138.662 Y106.244 E.02129
G1 X139.617 Y106.616 E.03213
G1 X140.219 Y106.929 E.02127
G1 X140.794 Y107.296 E.02139
G1 X141.332 Y107.708 E.02125
G1 X142.073 Y108.418 E.03218
G1 X142.509 Y108.938 E.02128
G1 X142.898 Y109.493 E.02125
G1 X143.392 Y110.393 E.03219
G1 X143.651 Y111.018 E.02121
G1 X143.832 Y111.639 E.02028
G1 X144.003 Y112.373 E.02363
G1 X144.089 Y113.049 E.02137
G1 X144.115 Y114.028 E.03071
G1 X144.004 Y115.046 E.03211
G1 X143.856 Y115.71 E.02133
G1 X143.652 Y116.36 E.02136
G1 X143.391 Y116.989 E.02135
G1 X143.077 Y117.591 E.02129
G1 X142.508 Y118.443 E.03212
G1 X142.072 Y118.964 E.0213
G1 X141.59 Y119.445 E.02135
G1 X141.07 Y119.882 E.0213
G1 X140.218 Y120.451 E.03212
G1 X139.615 Y120.765 E.02132
G1 X138.986 Y121.025 E.02134
G1 X138.337 Y121.23 E.02134
G1 X137.672 Y121.377 E.02135
G1 X137.001 Y121.466 E.02122
G1 X135.974 Y121.488 E.03221
G1 X135.297 Y121.429 E.02131
G1 X134.625 Y121.311 E.02139
G1 X133.972 Y121.136 E.0212
G1 X133.015 Y120.764 E.03219
G1 X132.413 Y120.45 E.02129
G1 X131.838 Y120.084 E.02137
G1 X131.302 Y119.672 E.0212
G1 X130.56 Y118.962 E.0322
G1 X130.123 Y118.442 E.0213
G1 X129.734 Y117.886 E.02128
G1 X129.241 Y116.987 E.03215
G1 X128.982 Y116.361 E.02124
G1 X128.695 Y115.378 E.03211
G1 X128.577 Y114.709 E.0213
G1 X128.518 Y114.03 E.02137
G1 X128.518 Y113.349 E.02135
G1 X128.577 Y112.673 E.02128
G1 X128.777 Y111.669 E.0321
G1 X128.981 Y111.02 E.02133
G1 X129.242 Y110.391 E.02135
G1 X129.556 Y109.787 E.02134
G1 X129.86 Y109.31 E.01774
G1 E-1.75 F1500
;WIPE_START
G1 F7200
G1 X129.892 Y109.259 E-.01192
G1 X129.92 Y109.216 E-.01016
G1 X130.563 Y108.415 E-.20329
G1 X131.043 Y107.935 E-.13435
G1 X131.564 Y107.497 E-.13471
G1 X132.122 Y107.106 E-.13485
G1 X132.651 Y106.801 E-.12072
;WIPE_END
G1 X140.238 Y107.522 F9000
G1 E2.5 F2400
;TYPE:Solid infill
;WIDTH:0.428535
G1 F1200
G1 X141.621 Y108.906 E.06274
G1 X141.985 Y109.34 E.01816
G1 X142.337 Y109.842 E.01966
G1 X142.732 Y110.562 E.02633
G1 X139.435 Y107.265 E.1495
G1 X138.523 Y106.899 E.03151
G1 X143.096 Y111.471 E.20734
G1 X143.308 Y112.228 E.02521
G1 X137.778 Y106.699 E.25074
G1 X137.129 Y106.595 E.02108
G1 X143.411 Y112.877 E.28486
G1 X143.455 Y113.466 E.01894
G1 X136.54 Y106.551 E.31356
G1 X135.995 Y106.552 E.01747
G1 X143.453 Y114.01 E.33819
G1 X143.399 Y114.501 E.01584
G1 X135.494 Y106.596 E.35846
G1 X135.022 Y106.669 E.01531
G1 X143.341 Y114.988 E.37723
G1 X143.242 Y115.434 E.01465
G1 X134.578 Y106.771 E.39285
G1 X134.156 Y106.894 E.01409
G1 X143.118 Y115.856 E.40639
G1 X142.978 Y116.261 E.01374
G1 X133.748 Y107.031 E.41854
G1 X133.369 Y107.198 E.01328
G1 X142.818 Y116.647 E.42847
G1 X142.636 Y117.01 E.01302
G1 X132.992 Y107.366 E.43731
G1 X132.646 Y107.566 E.01281
G1 X142.439 Y117.359 E.44407
G1 X142.221 Y117.686 E.0126
G1 X132.313 Y107.778 E.44928
G1 X131.992 Y108.003 E.01257
G1 X142.002 Y118.012 E.45388
G1 X141.757 Y118.312 E.01242
G1 X131.694 Y108.249 E.45631
G1 X131.405 Y108.506 E.0124
G1 X141.501 Y118.601 E.45778
G1 X141.228 Y118.874 E.01238
G1 X131.132 Y108.778 E.45781
G1 X130.881 Y109.072 E.0124
G1 X140.939 Y119.13 E.45608
G1 X140.639 Y119.376 E.01244
G1 X130.638 Y109.375 E.4535
G1 X130.403 Y109.685 E.01247
G1 X140.312 Y119.594 E.44933
G1 X139.985 Y119.813 E.01262
G1 X130.191 Y110.018 E.44414
G1 X129.997 Y110.369 E.01286
G1 X139.637 Y120.009 E.43713
G1 X139.274 Y120.192 E.01303
G1 X129.814 Y110.733 E.42894
G1 X129.655 Y111.118 E.01336
G1 X138.888 Y120.352 E.4187
G1 X138.483 Y120.492 E.01374
G1 X129.514 Y111.523 E.4067
G1 X129.394 Y111.948 E.01416
G1 X138.061 Y120.615 E.39301
G1 X137.615 Y120.714 E.01465
G1 X129.303 Y112.403 E.37689
G1 X129.222 Y112.867 E.0151
G1 X137.137 Y120.782 E.35891
G1 X136.95 Y120.807 E.00605
G1 X136.624 Y120.814 E.01046
G1 X129.178 Y113.369 E.33762
G1 X129.178 Y113.913 E.01744
G1 X136.09 Y120.826 E.31345
G1 X135.504 Y120.785 E.01884
G1 X129.221 Y114.502 E.2849
G1 X129.325 Y115.151 E.02108
G1 X134.855 Y120.681 E.25076
G1 X134.109 Y120.481 E.02476
G1 X129.537 Y115.909 E.20732
G1 X129.605 Y116.142 E.00778
G1 X129.901 Y116.818 E.02366
G1 X133.197 Y120.114 E.14946
G1 X132.744 Y119.878 E.01638
G1 X132.217 Y119.543 E.02002
G1 X131.732 Y119.17 E.01962
G1 X130.135 Y117.597 E.07187
G1 E-1.75 F1500
;WIPE_START
G1 F7200
G1 X131.732 Y119.17 E-.44365
G1 X132.217 Y119.543 E-.12109
G1 X132.744 Y119.878 E-.12359
G1 X133.021 Y120.022 E-.06167
;WIPE_END
G1 X124.785 Y110.032 F9000
G1 E2.5 F2400
;TYPE:Perimeter
;WIDTH:0.419999
G1 F1200
G1 X124.255 Y110.386 E.01998
G1 X123.685 Y110.683 E.02015
G1 X123.087 Y110.931 E.0203
G1 X122.468 Y111.126 E.02035
G1 X121.836 Y111.266 E.0203
G1 X121.201 Y111.349 E.02008
G1 X120.216 Y111.371 E.03089
G1 X119.576 Y111.315 E.02014
G1 X118.937 Y111.202 E.02035
G1 X118.319 Y111.037 E.02006
G1 X117.401 Y110.68 E.03088
G1 X116.831 Y110.383 E.02015
G1 X116.284 Y110.035 E.02033
G1 X115.777 Y109.646 E.02004
G1 X115.065 Y108.964 E.03091
G1 X114.652 Y108.472 E.02014
G1 X114.284 Y107.947 E.0201
G1 X113.811 Y107.084 E.03086
G1 X113.567 Y106.496 E.01996
G1 X113.292 Y105.552 E.03083
G1 X113.181 Y104.92 E.02012
G1 X113.124 Y104.274 E.02033
G1 X113.124 Y103.626 E.02032
G1 X113.18 Y102.986 E.02014
G1 X113.372 Y102.023 E.03079
G1 X113.565 Y101.409 E.02018
G1 X113.813 Y100.811 E.0203
G1 X114.112 Y100.236 E.02032
G1 X114.456 Y99.696 E.02007
G1 X115.073 Y98.927 E.03091
G1 X115.527 Y98.473 E.02013
G1 X116.023 Y98.056 E.02032
G1 X116.554 Y97.685 E.02031
G1 X117.109 Y97.365 E.02009
G1 X118.006 Y96.97 E.03073
G1 X118.944 Y96.696 E.03064
G1 X119.576 Y96.585 E.02012
G1 X120.222 Y96.528 E.02033
G1 X120.87 Y96.528 E.02032
G1 X121.515 Y96.585 E.0203
G1 X122.154 Y96.697 E.02034
G1 X122.774 Y96.864 E.02013
G1 X123.691 Y97.22 E.03084
G1 X124.26 Y97.517 E.02012
G1 X124.807 Y97.865 E.02033
G1 X125.316 Y98.255 E.02011
G1 X126.027 Y98.936 E.03087
G1 X126.439 Y99.428 E.02012
G1 X126.807 Y99.953 E.0201
G1 X127.281 Y100.816 E.03087
G1 X127.524 Y101.404 E.01995
G1 X127.699 Y102.005 E.01963
G1 X127.861 Y102.699 E.02234
G1 X127.943 Y103.342 E.02032
G1 X127.967 Y104.268 E.02904
G1 X127.86 Y105.245 E.03082
G1 X127.721 Y105.873 E.02017
G1 X127.526 Y106.491 E.02032
G1 X127.278 Y107.089 E.0203
G1 X126.982 Y107.659 E.02014
G1 X126.435 Y108.477 E.03085
G1 X126.023 Y108.969 E.02012
G1 X125.565 Y109.427 E.02031
G1 X125.073 Y109.84 E.02014
G1 X124.835 Y109.998 E.00896
G1 X125.059 Y110.303 F9000
;TYPE:External perimeter
G1 F1200
G1 X124.447 Y110.711 E.02306
G1 X123.845 Y111.025 E.02129
G1 X123.216 Y111.285 E.02134
G1 X122.566 Y111.49 E.02137
G1 X121.901 Y111.638 E.02136
G1 X121.23 Y111.726 E.02122
G1 X120.203 Y111.749 E.03221
G1 X119.527 Y111.689 E.02128
G1 X118.855 Y111.571 E.02139
G1 X118.202 Y111.396 E.0212
G1 X117.245 Y111.024 E.03219
G1 X116.643 Y110.71 E.02129
G1 X116.068 Y110.344 E.02137
G1 X115.531 Y109.932 E.02122
G1 X114.789 Y109.222 E.0322
G1 X114.353 Y108.702 E.02128
G1 X113.964 Y108.146 E.02128
G1 X113.47 Y107.247 E.03216
G1 X113.211 Y106.622 E.02121
G1 X112.924 Y105.638 E.03214
G1 X112.806 Y104.969 E.0213
G1 X112.747 Y104.29 E.02137
G1 X112.747 Y103.609 E.02135
G1 X112.806 Y102.933 E.02128
G1 X113.006 Y101.929 E.0321
G1 X113.21 Y101.28 E.02133
G1 X113.471 Y100.651 E.02135
G1 X113.786 Y100.047 E.02136
G1 X114.149 Y99.476 E.02121
G1 X114.792 Y98.675 E.03221
G1 X115.272 Y98.195 E.02128
G1 X115.794 Y97.757 E.02137
G1 X116.352 Y97.366 E.02136
G1 X116.938 Y97.028 E.02121
G1 X117.876 Y96.615 E.03213
G1 X118.858 Y96.329 E.03207
G1 X119.527 Y96.211 E.0213
G1 X120.205 Y96.151 E.02134
G1 X120.886 Y96.151 E.02135
G1 X121.565 Y96.211 E.02137
G1 X122.235 Y96.329 E.02133
G1 X122.891 Y96.505 E.0213
G1 X123.847 Y96.876 E.03215
G1 X124.449 Y97.19 E.02129
G1 X125.024 Y97.556 E.02137
G1 X125.561 Y97.969 E.02124
G1 X126.302 Y98.678 E.03216
G1 X126.739 Y99.198 E.0213
G1 X127.128 Y99.754 E.02128
G1 X127.621 Y100.653 E.03215
G1 X127.88 Y101.278 E.02121
G1 X128.062 Y101.9 E.02032
G1 X128.233 Y102.634 E.02363
G1 X128.318 Y103.309 E.02133
G1 X128.344 Y104.289 E.03074
G1 X128.233 Y105.306 E.03208
G1 X128.086 Y105.97 E.02132
G1 X127.881 Y106.62 E.02137
G1 X127.621 Y107.249 E.02134
G1 X127.307 Y107.851 E.02129
G1 X126.737 Y108.704 E.03217
G1 X126.301 Y109.224 E.02128
G1 X125.82 Y109.705 E.02133
G1 X125.299 Y110.142 E.02132
G1 X125.108 Y110.269 E.00719
G1 E-1.75 F1500
;WIPE_START
G1 F7200
G1 X125.059 Y110.303 E-.0118
G1 X124.447 Y110.711 E-.14557
G1 X123.845 Y111.025 E-.13438
G1 X123.216 Y111.285 E-.13471
G1 X122.566 Y111.49 E-.13489
G1 X121.901 Y111.638 E-.13483
G1 X121.631 Y111.673 E-.05382
;WIPE_END
G1 X124.467 Y97.783 F9000
G1 E2.5 F2400
;TYPE:Solid infill
;WIDTH:0.428535
G1 F1200
G1 X125.851 Y99.166 E.06274
G1 X126.215 Y99.6 E.01816
G1 X126.567 Y100.103 E.01969
G1 X126.962 Y100.822 E.0263
G1 X123.665 Y97.525 E.1495
G1 X122.753 Y97.159 E.03151
G1 X127.325 Y101.731 E.20732
G1 X127.537 Y102.488 E.02521
G1 X122.007 Y96.959 E.25074
G1 X121.358 Y96.855 E.02108
G1 X127.641 Y103.138 E.2849
